X:207
T:March in Battle of Prague,3voices. JGi.207
M:4/4
L:1/8
Q:1/4=120
S:Joshua Gibbons MS,1823,Tealby,Lincs.
N: First part only on last page of MS.
R:march
O:Tealby,Lincolnshire
Z:VMP/R.Greig, 2009
K:C
[V:1]f2f>ff2g/f/e/d/|c2c>cc2a>f|d2b>ge2g>e|f2f>ff2b>g|
[V:2]A2A>AA2z2|A2A>AA2z2|B6(G>B)|A2A>AA2f2|
[V:3]F,2F,>F,F,2z2|F,2F,>F,F,2z2|B,,2B,,2C,2C,2|F,,2F,,>F,,F,,2C,2|
[V:1]g2e>f gg ag|f2e>e ff gf|e2g/f/e/d/c2=B2|c2c>cc4|]
[V:2]e2c>d ec fe|d2d2d2c=B|c2c2G2F2|E2E>EE4|]
[V:3]C,2C,2C,2C,2|D,2B,,2F,2G,2|C,2E,2G,2G,,2|C,2C,>C,C,4|]

